src/assets/flags/sy.svg

<?xml version="1.0" encoding="UTF-8"?>
<svg xmlns="http://www.w3.org/2000/svg" xmlns:xlink="http://www.w3.org/1999/xlink" width="25px" height="px" viewBox="0 0 25 19" version="1.1">
<g id="surface1">
<rect x="0" y="0" width="25" height="19" style="fill:rgb(0%,0%,0%);fill-opacity:1;stroke:none;"/>
<path style=" stroke:none;fill-rule:nonzero;fill:rgb(100%,100%,100%);fill-opacity:1;" d="M 0 0 L 25 0 L 25 12.667969 L 0 12.667969 Z M 0 0 "/>
<path style=" stroke:none;fill-rule:nonzero;fill:rgb(0%,47.843137%,23.921569%);fill-opacity:1;" d="M 0 0 L 25 0 L 25 6.332031 L 0 6.332031 Z M 0 0 "/>
<path style=" stroke:none;fill-rule:nonzero;fill:rgb(80.784315%,6.666667%,14.901961%);fill-opacity:1;" d="M 3.945312 11.875 L 5.46875 7.125 L 6.992188 11.875 L 3.007812 8.9375 L 7.929688 8.9375 M 18.007812 11.875 L 19.53125 7.125 L 21.054688 11.875 L 17.070312 8.9375 L 21.992188 8.9375 M 10.976562 11.875 L 12.5 7.125 L 14.023438 11.875 L 10.035156 8.9375 L 14.964844 8.9375 "/>
</g>
</svg>

<svg xmlns="http://www.w3.org/2000/svg" width="25" height="px" viewBox="0 0 25 19"><path d="M0 0h25v19H0z" style="fill:#000;fill-opacity:1;stroke:none"/><path d="M0 0h25v12.668H0Zm0 0" style="stroke:none;fill-rule:nonzero;fill:#fff;fill-opacity:1"/><path d="M0 0h25v6.332H0Zm0 0" style="stroke:none;fill-rule:nonzero;fill:#007a3d;fill-opacity:1"/><path d="m3.945 11.875 1.524-4.75 1.523 4.75-3.984-2.937H7.93m10.078 2.937 1.523-4.75 1.524 4.75-3.985-2.937h4.922m-11.015 2.937 1.523-4.75 1.523 4.75-3.988-2.937h4.93" style="stroke:none;fill-rule:nonzero;fill:#ce1126;fill-opacity:1"/></svg>
